X:1
T:In un boschetto
T:Luca Marenzio
T:Source : Il primo libro delle Villanelle a tre voci---Venetia---G.Vincenzi---1586. Editor : André Vierendeels (10/05/17).
T:Notes : Original clefs : C1, C2, F4 "Terza impreessione" m 9 in S 1 : "C" notated as "D" in original print m7 in B : first "G" notated as"E" in original print
T:In un boschetto
T:©
T:©
C:Luca Marenzio
Z:©
%%score [ 1 2 3 ]
L:1/8
Q:1/4=120
M:4/4
K:F
V:1 treble nm="Soprano 1" snm="S 1"
V:2 treble nm="Soprano 2" snm="S 2"
V:3 bass nm="Bass" snm="B"
V:1
"^1)" G4 G4- | G2 A2 B2 c2 | d3 e f2 d2 | c8 |[M:2/4] B4 :: z2 d2 |[M:4/4] c3 =B c2 d2 | %7
w: In un|_ bos- chet- to|de bei Mir- ti'e'Al-|lo-|ri,|al'|hor che d'her- b'e|
w: Di- cea|_ la Nin- fa|con gra- te pa-|ro-|le:|Di-|te ca- ro mio|
 c3 G A2 =B2 | c4 G4 | z2 d2 B2 c2 | d4 c2 B2- | B2 A2 c4- | c2 B2 A4 | G8 :| %14
w: fior va- go'è'l ter-|re- no,|vi- di'un pa-|stor à la|_ sua Nin-|* fa'in se-|no?|
w: ben, dol- ce mio|so- le,|dov' è l'a-|ni- ma tua,|_ dov' è'il|_ tuo co-|re?|
V:2
"^2)""^1)" D4 D4- | D2 D2 G2 G2 | F3 E D2 B2- | B2 AG A4 |[M:2/4] B4 :: z2 B2 |[M:4/4] A3 G A2 B2 | %7
w: In un|_ bos- chet- to|de bei Mir- ti'e'Al-|* * * lo-|ri,|al'|hor che d'her- b'e|
w: Dis- se'al'|_ hor il pa-|stor con un so-|* * * spi-|ro:|Pien|di dol- cez- za,|
 A3 c C2 D2 | E4 E4 | z2 B2 G2 F2 | F4 A2 G2- | G2 F2 EFGE | ^F2 G4 F2 | G8 :| %14
w: fior va- go'è'l ter-|re- no,|vi- d'un pa-|stor à la|sua Nin- * * * *|fa'in se- *|no?|
w: con af- fan- no|mi- sta,|tu sei l'a-|ni- ma mi-|* a, mio _ _ _|co- r'e vi-|ta.|
V:3
"^3)""^1)""^4)" G,,4 G,4- | G,2 F,2 _E,2 E,2 | D,3 C, B,,2 B,,2 | F,8 |[M:2/4] B,,4 :: B,4 | %6
w: In un|_ bos- chet- to|de bei Mir- ti'e'Al-|lo-|ri,|al'|
w: Al' hor|_ la va- ga|Nin- fa con un|ri-|so,|con|
[M:4/4] F,3 E, F,2 G,2 | F,3 E, F,2 D,2 | C,4 C,4 | G,4 G,2 A,2 | B,4 F,2 G,2- | G,2 D,2 C,2 C,2 | %12
w: hor che d'her- b'e|fior va- go'e'l ter-|re- no,|vi- di'un pa-|stor à la|_ sua Nin- f'in|
w: vez- zo- se pa-|ro- l'e dol- ci|cian- cie,|ma boc- ca|gli ba- scio,|_ gli'oc- chi'e le|
 D,8 | G,,8 :| %14
w: se-|no?|
w: guan-|cie.|

